icons/media/replay-10.svg

<svg width="32" height="32" viewBox="0 0 32 32" xmlns="http://www.w3.org/2000/svg"><path fill-rule="evenodd" clip-rule="evenodd" d="M5.08628 6.00024L5.79338 6.70734L10.7936 11.7076L12.2078 10.2934L8.91469 7.00023L16.5007 7.00023V6.99998C22.2996 7.00012 27.0005 11.7011 27.0005 17.5C27.0005 23.299 22.2995 28 16.5005 28C10.7015 28 6.00049 23.299 6.00049 17.5C6.00049 16.1511 6.25433 14.864 6.71594 13.6819L4.85297 12.9544C4.30226 14.3645 4.00049 15.8982 4.00049 17.5C4.00049 24.4035 9.59693 30 16.5005 30C23.404 30 29.0005 24.4035 29.0005 17.5C29.0005 10.5964 23.404 4.99998 16.5005 4.99998V5.00023L8.91471 5.00023L12.2078 1.70709L10.7936 0.292877L5.79338 5.29313L5.08628 6.00024ZM16.0005 23H10.0005V21H12.0005V16H10.0005V14H12.0005V13H14.0005V21H16.0005V23ZM18.0005 13L17.0005 14V22L18.0005 23H22.0005L23.0005 22V14L22.0005 13H18.0005ZM19.0005 21V15H21.0005V21H19.0005Z"/></svg>

<svg viewBox="0 0 32 32" xmlns="http://www.w3.org/2000/svg"><path fill-rule="evenodd" d="M5.086 6l.707.707 5 5 1.415-1.414L8.915 7H16.5C22.3 7 27 11.701 27 17.5S22.298 28 16.5 28C10.7 28 6 23.299 6 17.5c0-1.349.253-2.636.715-3.818l-1.863-.728A12.47 12.47 0 004 17.5C4 24.404 9.597 30 16.5 30 23.404 30 29 24.404 29 17.5S23.404 5 16.5 5H8.915l3.293-3.293L10.794.293l-5 5L5.085 6zM16 23h-6v-2h2v-5h-2v-2h2v-1h2v8h2v2zm2-10l-1 1v8l1 1h4l1-1v-8l-1-1h-4zm1 8v-6h2v6h-2z"/></svg>
